groups/heteroaromatics/pyrimidine.svg

<?xml version='1.0' encoding='iso-8859-1'?>
<svg version='1.1' baseProfile='full'
              xmlns='http://www.w3.org/2000/svg'
                      xmlns:rdkit='http://www.rdkit.org/xml'
                      xmlns:xlink='http://www.w3.org/1999/xlink'
                  xml:space='preserve'
width='256px' height='256px' viewBox='0 0 256 256'>
<!-- END OF HEADER -->
<rect style='opacity:1.0;fill:#FFFFFF;stroke:none' width='256.0' height='256.0' x='0.0' y='0.0'> </rect>
<path class='bond-0 atom-0 atom-1' d='M 32.6,187.2 L 98.4,149.3' style='fill:none;fill-rule:evenodd;stroke:#000000;stroke-width:2.0px;stroke-linecap:butt;stroke-linejoin:miter;stroke-opacity:1' />
<path class='bond-1 atom-1 atom-2' d='M 98.4,149.3 L 98.4,95.9' style='fill:none;fill-rule:evenodd;stroke:#000000;stroke-width:2.0px;stroke-linecap:butt;stroke-linejoin:miter;stroke-opacity:1' />
<path class='bond-1 atom-1 atom-2' d='M 109.8,142.7 L 109.8,95.9' style='fill:none;fill-rule:evenodd;stroke:#000000;stroke-width:2.0px;stroke-linecap:butt;stroke-linejoin:miter;stroke-opacity:1' />
<path class='bond-2 atom-2 atom-3' d='M 113.0,65.0 L 164.2,35.5' style='fill:none;fill-rule:evenodd;stroke:#000000;stroke-width:2.0px;stroke-linecap:butt;stroke-linejoin:miter;stroke-opacity:1' />
<path class='bond-3 atom-1 atom-4' d='M 98.4,149.3 L 164.1,187.3' style='fill:none;fill-rule:evenodd;stroke:#000000;stroke-width:2.0px;stroke-linecap:butt;stroke-linejoin:miter;stroke-opacity:1' />
<path class='bond-4 atom-4 atom-5' d='M 164.1,187.3 L 229.9,149.4' style='fill:none;fill-rule:evenodd;stroke:#000000;stroke-width:2.0px;stroke-linecap:butt;stroke-linejoin:miter;stroke-opacity:1' />
<path class='bond-4 atom-4 atom-5' d='M 164.1,174.2 L 218.5,142.8' style='fill:none;fill-rule:evenodd;stroke:#000000;stroke-width:2.0px;stroke-linecap:butt;stroke-linejoin:miter;stroke-opacity:1' />
<path class='bond-5 atom-5 atom-6' d='M 229.9,149.4 L 229.9,96.0' style='fill:none;fill-rule:evenodd;stroke:#000000;stroke-width:2.0px;stroke-linecap:butt;stroke-linejoin:miter;stroke-opacity:1' />
<path class='bond-6 atom-6 atom-3' d='M 215.5,65.1 L 164.2,35.5' style='fill:none;fill-rule:evenodd;stroke:#000000;stroke-width:2.0px;stroke-linecap:butt;stroke-linejoin:miter;stroke-opacity:1' />
<path class='bond-6 atom-6 atom-3' d='M 209.8,75.0 L 164.2,48.6' style='fill:none;fill-rule:evenodd;stroke:#000000;stroke-width:2.0px;stroke-linecap:butt;stroke-linejoin:miter;stroke-opacity:1' />
<path d='M 161.7,36.9 L 164.2,35.5 L 166.8,37.0' style='fill:none;stroke:#000000;stroke-width:2.0px;stroke-linecap:butt;stroke-linejoin:miter;stroke-miterlimit:10;stroke-opacity:1;' />
<path d='M 160.8,185.4 L 164.1,187.3 L 167.4,185.4' style='fill:none;stroke:#000000;stroke-width:2.0px;stroke-linecap:butt;stroke-linejoin:miter;stroke-miterlimit:10;stroke-opacity:1;' />
<path d='M 226.6,151.3 L 229.9,149.4 L 229.9,146.7' style='fill:none;stroke:#000000;stroke-width:2.0px;stroke-linecap:butt;stroke-linejoin:miter;stroke-miterlimit:10;stroke-opacity:1;' />
<path class='atom-1' d='M51.5553,220.129 C54.0224,218.707 52.1263,215.418 49.6593,216.84 C47.1922,218.262 45.2962,214.972 47.7632,213.55 C50.2303,212.128 48.3342,208.839 45.8672,210.261 C43.4001,211.683 41.5041,208.394 43.9711,206.972 C46.4382,205.55 44.5421,202.26 42.0751,203.682 C39.608,205.104 37.7119,201.815 40.179,200.393 C42.646,198.971 40.75,195.681 38.2829,197.103 C35.8159,198.525 33.9198,195.236 36.3869,193.814 C38.8539,192.392 36.9579,189.102 34.4908,190.524 C32.0238,191.946 30.1277,188.657 32.5948,187.235 C35.0618,185.813 33.1658,182.524 30.6987,183.946 C28.2316,185.368 26.3356,182.078 28.8026,180.656 C31.2697,179.234 29.3736,175.945 26.9066,177.367 C24.4395,178.789 22.5435,175.499 25.0105,174.077 C27.4776,172.655 25.5815,169.366 23.1145,170.788 C20.6474,172.21 18.7514,168.92 21.2184,167.498 C23.6855,166.076 21.7894,162.787 19.3224,164.209 C16.8553,165.631 14.9592,162.342 17.4263,160.919 C19.8934,159.497 17.9973,156.208 15.5302,157.63 C13.0632,159.052 11.1671,155.763 13.6342,154.341' style='fill:none;stroke:#7F7F7F;stroke-width:2.0px;stroke-linecap:butt;stroke-linejoin:miter;stroke-opacity:1' />
<text x='86.4' y='93.4' class='atom-2' style='font-size:40px;font-style:normal;font-weight:normal;fill-opacity:1;stroke:none;font-family:sans-serif;text-anchor:start;fill:#000000' >N</text>
<text x='218.0' y='93.5' class='atom-6' style='font-size:40px;font-style:normal;font-weight:normal;fill-opacity:1;stroke:none;font-family:sans-serif;text-anchor:start;fill:#000000' >N</text>
</svg>

<svg height="256" viewBox="0 0 256 256" width="256" xmlns="http://www.w3.org/2000/svg"><path d="m0 0h256v256h-256z" fill="#fff"/><g fill="none" stroke-width="2"><path d="m32.6 187.2 65.8-37.9" stroke="#000"/><path d="m98.4 149.3v-53.4" stroke="#000"/><path d="m109.8 142.7v-46.8" stroke="#000"/><path d="m113 65 51.2-29.5" stroke="#000"/><path d="m98.4 149.3 65.7 38" stroke="#000"/><path d="m164.1 187.3 65.8-37.9" stroke="#000"/><path d="m164.1 174.2 54.4-31.4" stroke="#000"/><path d="m229.9 149.4v-53.4" stroke="#000"/><path d="m215.5 65.1-51.3-29.6" stroke="#000"/><path d="m209.8 75-45.6-26.4" stroke="#000"/><path d="m161.7 36.9 2.5-1.4 2.6 1.5" stroke="#000" stroke-miterlimit="10"/><path d="m160.8 185.4 3.3 1.9 3.3-1.9" stroke="#000" stroke-miterlimit="10"/><path d="m226.6 151.3 3.3-1.9v-2.7" stroke="#000" stroke-miterlimit="10"/><path d="m51.555 220.129c2.467-1.422.571-4.711-1.896-3.289s-4.363-1.868-1.896-3.29.571-4.711-1.896-3.289-4.363-1.867-1.896-3.289.571-4.712-1.896-3.29-4.363-1.867-1.896-3.289.571-4.712-1.896-3.29-4.363-1.867-1.896-3.289.571-4.712-1.896-3.29-4.363-1.867-1.896-3.289.571-4.711-1.896-3.289-4.363-1.868-1.896-3.29.571-4.711-1.896-3.289-4.363-1.868-1.896-3.29.571-4.711-1.896-3.289c-2.468 1.422-4.364-1.868-1.897-3.29 2.468-1.422.571-4.711-1.896-3.289s-4.363-1.867-1.896-3.29c2.467-1.422.571-4.711-1.896-3.289s-4.363-1.867-1.896-3.289" stroke="#7f7f7f"/></g><text font-family="sans-serif" font-size="40" x="86.4" y="93.4">N</text><text font-family="sans-serif" font-size="40" x="218" y="93.5">N</text></svg>
